public/images/home/why-us/chat.svg

<svg width="36" height="37" viewBox="0 0 36 37" fill="none" xmlns="http://www.w3.org/2000/svg">
<path d="M27 4.54794H3.11541C1.39753 4.54794 0 5.94547 0 7.66335V18.7402C0 20.458 1.39753 21.8556 3.11541 21.8556H5.88466V27.7402C5.88466 28.1293 6.10214 28.4856 6.44801 28.6636C6.59777 28.7407 6.76069 28.7787 6.92304 28.7787C7.13559 28.7787 7.34723 28.7135 7.52674 28.5853L16.9482 21.8556H27C28.7178 21.8556 30.1154 20.458 30.1154 18.7402V7.66335C30.1154 5.94547 28.7178 4.54794 27 4.54794ZM6.28844 10.2595H17.3653C17.9389 10.2595 18.4038 10.7245 18.4038 11.298C18.4038 11.8714 17.9388 12.3364 17.3653 12.3364H6.28844C5.71491 12.3364 5.25 11.8714 5.25 11.298C5.25 10.7245 5.71498 10.2595 6.28844 10.2595ZM23.1923 16.4903H6.28844C5.71491 16.4903 5.25 16.0253 5.25 15.4518C5.25 14.8783 5.71498 14.4134 6.28844 14.4134H23.1923C23.7658 14.4134 24.2306 14.8783 24.2306 15.4518C24.2306 16.0253 23.7658 16.4903 23.1923 16.4903Z" fill="#FF6B00"/>
<path d="M34.9614 12.8557H32.1922V18.7402C32.1922 21.6033 29.8629 23.9325 26.9999 23.9325H17.6136L14.1932 26.3757C14.204 26.9399 14.6639 27.3941 15.2306 27.3941H24.5586L31.1973 32.705C31.385 32.8553 31.6145 32.9326 31.8461 32.9325C31.999 32.9325 32.1528 32.8989 32.2959 32.8301C32.6556 32.6571 32.8844 32.2933 32.8844 31.8941V27.3941H34.9613C35.5349 27.3941 35.9998 26.9291 35.9998 26.3556V13.8941C35.9999 13.3206 35.5349 12.8557 34.9614 12.8557Z" fill="#434343"/>
</svg>

<svg xmlns="http://www.w3.org/2000/svg" width="36" height="37" fill="none" xmlns:v="https://vecta.io/nano"><path d="M27 4.548H3.115A3.12 3.12 0 0 0 0 7.663V18.74a3.12 3.12 0 0 0 3.115 3.115h2.769v5.885a1.04 1.04 0 0 0 .563.923c.15.077.313.115.475.115a1.04 1.04 0 0 0 .604-.193l9.421-6.73H27a3.12 3.12 0 0 0 3.115-3.115V7.663A3.12 3.12 0 0 0 27 4.548zM6.288 10.26h11.077a1.04 1.04 0 0 1 1.038 1.039 1.04 1.04 0 0 1-1.038 1.038H6.288a1.04 1.04 0 0 1-1.038-1.038 1.04 1.04 0 0 1 1.038-1.039zm16.904 6.231H6.288a1.04 1.04 0 0 1-1.038-1.039 1.04 1.04 0 0 1 1.038-1.038h16.904a1.04 1.04 0 0 1 1.038 1.038 1.04 1.04 0 0 1-1.038 1.039z" fill="#ff6b00"/><path d="M34.961 12.856h-2.769v5.885A5.2 5.2 0 0 1 27 23.933h-9.386l-3.42 2.443a1.04 1.04 0 0 0 1.037 1.018h9.328l6.639 5.311c.188.15.417.228.649.227.153 0 .307-.034.45-.102a1.04 1.04 0 0 0 .588-.936v-4.5h2.077A1.04 1.04 0 0 0 36 26.356V13.894a1.04 1.04 0 0 0-1.038-1.038z" fill="#434343"/></svg>
